assets/images/simple-illustrations/simple-illustration__lifering.svg

<svg width="48" height="48" viewBox="0 0 48 48" fill="none" xmlns="http://www.w3.org/2000/svg">
<path d="M41.6548 24.4302C41.673 25.6612 42.2067 27.9201 42.2157 29.1511C42.2248 30.3821 41.7913 31.7465 40.7028 32.3226C39.2565 33.0867 37.2311 32.1983 35.9698 33.2413L36.7854 31.513C37.6707 30.9612 38.8653 31.5828 39.6506 31.1674C40.8786 30.5185 40.8362 29.4998 40.8271 28.4386C40.818 27.3773 40.4026 25.4368 40.3905 24.3756V24.3089C40.4056 23.2477 40.821 21.3072 40.8271 20.246C40.8331 19.1848 40.8756 18.166 39.6506 17.5172C38.8623 17.1018 37.6677 17.7234 36.7854 17.1715L35.9698 15.4433C37.2311 16.4833 39.2595 15.5949 40.7028 16.362C41.7913 16.9381 42.2279 18.2994 42.2157 19.5335C42.2036 20.7675 41.67 23.0233 41.6548 24.2544V24.4363V24.4302Z" fill="#FFA75A" stroke="#002140" stroke-linecap="round" stroke-linejoin="round"/>
<path d="M23.6175 42.0706C22.3865 42.0888 20.1276 42.6224 18.8966 42.6315C17.6656 42.6406 16.3012 42.207 15.7251 41.1185C14.961 39.6722 15.8494 37.6468 14.8064 36.3855L16.5346 37.2011C17.0865 38.0865 16.4649 39.2811 16.8803 40.0664C17.5292 41.2944 18.5479 41.2519 19.6091 41.2428C20.6703 41.2337 22.6108 40.8183 23.6721 40.8062H23.7388C24.8 40.8214 26.7405 41.2368 27.8017 41.2428C28.8629 41.2489 29.8817 41.2913 30.5305 40.0664C30.9459 39.2781 30.3243 38.0835 30.8762 37.2011L32.6044 36.3855C31.5644 37.6468 32.4528 39.6753 31.6857 41.1185C31.1096 42.207 29.7483 42.6436 28.5142 42.6315C27.2802 42.6194 25.0243 42.0857 23.7933 42.0706H23.6114H23.6175Z" fill="#FFA75A" stroke="#002140" stroke-linecap="round" stroke-linejoin="round"/>
<path d="M23.7998 6.49572C25.0308 6.47752 27.2897 5.94389 28.5207 5.93479C29.7517 5.92569 31.1161 6.35928 31.6922 7.44778C32.4563 8.89405 31.5679 10.9195 32.6109 12.1808L30.8826 11.3652C30.3308 10.4798 30.9524 9.28519 30.537 8.49989C29.8881 7.27192 28.8694 7.31437 27.8082 7.32346C26.7469 7.33256 24.8064 7.74795 23.7452 7.76007H23.6785C22.6173 7.74491 20.6768 7.32953 19.6156 7.32346C18.5544 7.3174 17.5356 7.27495 16.8868 8.49989C16.4714 9.28822 17.0929 10.4828 16.5411 11.3652L14.8129 12.1808C15.8529 10.9195 14.9645 8.89102 15.7316 7.44778C16.3077 6.35928 17.669 5.92266 18.9031 5.93479C20.1371 5.94692 22.3929 6.48056 23.624 6.49572H23.8059H23.7998Z" fill="#FFA75A" stroke="#002140" stroke-linecap="round" stroke-linejoin="round"/>
<path d="M5.77434 24.2482C5.75615 23.0172 5.22251 20.7583 5.21341 19.5273C5.20431 18.2963 5.6379 16.9319 6.7264 16.3558C8.17268 15.5917 10.1981 16.4801 11.4594 15.4371L10.6438 17.1654C9.75843 17.7172 8.56381 17.0956 7.77851 17.511C6.55054 18.1599 6.59299 19.1786 6.60208 20.2398C6.61118 21.3011 7.02657 23.2416 7.0387 24.3028V24.3695C7.02354 25.4307 6.60815 27.3712 6.60208 28.4324C6.59602 29.4936 6.55357 30.5124 7.77851 31.1612C8.56684 31.5766 9.76146 30.9551 10.6438 31.5069L11.4594 33.2351C10.1981 32.1952 8.16964 33.0835 6.7264 32.3164C5.6379 31.7403 5.20128 30.379 5.21341 29.1449C5.22251 27.9139 5.75918 25.6551 5.77434 24.4241V24.2421V24.2482Z" fill="#FFA75A" stroke="#002140" stroke-linecap="round" stroke-linejoin="round"/>
<path d="M38.5395 22.511C38.6093 23.1023 38.6487 23.7087 38.6487 24.3211C38.6487 24.9336 38.6123 25.5522 38.5395 26.1464L38.3091 26.1191H31.9176L31.8327 26.101C31.957 25.5279 32.0237 24.9306 32.0237 24.3181C32.0237 23.7056 31.96 23.1326 31.8418 22.5686L31.9206 22.5535H38.1454L38.5456 22.508L38.5395 22.511Z" fill="#F25730"/>
<path d="M38.5393 22.511L38.1391 22.5565H31.9143L31.8355 22.5716C31.1503 19.3546 28.6094 16.8259 25.3894 16.1558L25.4409 15.9163V9.69457L25.4682 9.46413C32.2964 10.2767 37.7146 15.6859 38.5363 22.514L38.5393 22.511Z" fill="#FFFAF0"/>
<path d="M38.3064 26.1222L38.5368 26.1495C37.706 32.9625 32.2999 38.3595 25.4839 39.1782L25.4445 38.8204V32.5956L25.4172 32.4804C28.616 31.8042 31.1356 29.2937 31.8299 26.104L31.9148 26.1222H38.3064Z" fill="#FFFAF0"/>
<path d="M25.4442 38.8203L25.4836 39.1781C24.8924 39.2509 24.292 39.2873 23.6826 39.2873C23.0732 39.2873 22.4546 39.2509 21.8573 39.1781L21.8785 38.9901V32.5986L21.9058 32.4743C22.4759 32.5986 23.0732 32.6653 23.6826 32.6653C24.292 32.6653 24.859 32.6047 25.4169 32.4834L25.4442 32.5986V38.8234V38.8203Z" fill="#F25730"/>
<path d="M25.4711 9.46417L25.4438 9.69461V15.9194L25.3923 16.1589C24.8404 16.0437 24.2674 15.983 23.6822 15.983C23.097 15.983 22.4724 16.0497 21.8963 16.1771L21.8781 16.0892V9.69461L21.8509 9.47024C22.4512 9.39747 23.0606 9.36108 23.6822 9.36108C24.3038 9.36108 24.8829 9.39747 25.4681 9.4672L25.4711 9.46417Z" fill="#F25730"/>
<path d="M21.9058 32.4712L21.8785 32.5955V38.9871L21.8573 39.175C15.0534 38.3473 9.65639 32.9503 8.82864 26.1464L9.0136 26.1252H15.4051L15.5355 26.0979C16.2207 29.2755 18.7252 31.7829 21.9058 32.4743V32.4712Z" fill="#FFFAF0"/>
<path d="M21.8781 16.0831L21.8963 16.171C18.6975 16.8684 16.187 19.4031 15.5169 22.6141L15.238 22.5534H9.01319L8.82217 22.5322C9.63476 15.7101 15.0348 10.2979 21.8508 9.46413L21.8781 9.6885V16.08V16.0831Z" fill="#FFFAF0"/>
<path d="M15.5355 26.0949L15.4051 26.1222H9.01356L8.82861 26.1434C8.75584 25.5461 8.71945 24.9367 8.71945 24.3212C8.71945 23.7057 8.75584 23.1205 8.82557 22.5353L9.01659 22.5565H15.2414L15.5203 22.6172C15.4081 23.1659 15.3475 23.739 15.3475 24.3212C15.3475 24.9033 15.4142 25.5218 15.5385 26.0949H15.5355Z" fill="#F25730"/>
<path d="M38.5386 22.511C38.6083 23.1022 38.6477 23.7086 38.6477 24.3211C38.6477 24.9335 38.6114 25.5521 38.5386 26.1464C37.7078 32.9593 32.3017 38.3564 25.4857 39.175C24.8944 39.2478 24.2941 39.2842 23.6847 39.2842C23.0752 39.2842 22.4567 39.2478 21.8594 39.175C15.0555 38.3473 9.65848 32.9502 8.83074 26.1464C8.75797 25.549 8.72159 24.9396 8.72159 24.3241C8.72159 23.7086 8.75797 23.1234 8.82771 22.5382C9.64029 15.7162 15.0403 10.304 21.8564 9.47018C22.4567 9.39741 23.0661 9.36102 23.6877 9.36102C24.3093 9.36102 24.8884 9.39741 25.4736 9.46714C32.3017 10.2797 37.7199 15.6889 38.5416 22.517L38.5386 22.511Z" stroke="#002140" stroke-linecap="round" stroke-linejoin="round"/>
<path d="M31.8376 22.5717C31.9589 23.1357 32.0195 23.7209 32.0195 24.3212C32.0195 24.9216 31.9528 25.531 31.8285 26.104C31.1311 29.2937 28.6115 31.8043 25.4157 32.4804C24.8548 32.6017 24.2757 32.6623 23.6814 32.6623C23.0871 32.6623 22.4747 32.5956 21.9046 32.4713C18.724 31.78 16.2196 29.2725 15.5343 26.0949C15.41 25.5249 15.3433 24.9306 15.3433 24.3212C15.3433 23.7118 15.404 23.166 15.5162 22.6172C16.1832 19.4063 18.6937 16.8715 21.8955 16.1741C22.4716 16.0468 23.0689 15.9801 23.6814 15.9801C24.2939 15.9801 24.8396 16.0407 25.3915 16.1559C28.6115 16.826 31.1523 19.3547 31.8376 22.5717Z" stroke="#002140" stroke-linecap="round" stroke-linejoin="round"/>
<path d="M9.01569 22.5564H15.2374" stroke="#002140" stroke-linecap="round" stroke-linejoin="round"/>
<path d="M15.4042 26.1221H9.01569" stroke="#002140" stroke-linecap="round" stroke-linejoin="round"/>
<path d="M31.917 22.5564H38.1387" stroke="#002140" stroke-linecap="round" stroke-linejoin="round"/>
<path d="M38.3055 26.1221H31.917" stroke="#002140" stroke-linecap="round" stroke-linejoin="round"/>
<path d="M25.4434 9.69462V15.9163" stroke="#002140" stroke-linecap="round" stroke-linejoin="round"/>
<path d="M21.8777 16.0831V9.69462" stroke="#002140" stroke-linecap="round" stroke-linejoin="round"/>
<path d="M25.4434 32.5954V38.8202" stroke="#002140" stroke-linecap="round" stroke-linejoin="round"/>
<path d="M21.8777 38.987V32.5954" stroke="#002140" stroke-linecap="round" stroke-linejoin="round"/>
<path d="M23.6178 42.0705C22.3868 42.0887 20.1279 42.6223 18.8969 42.6314C17.6659 42.6405 16.3015 42.207 15.7254 41.1185C14.9613 39.6722 15.8497 37.6468 14.8067 36.3854L15.7769 34.8785C17.3536 36.6614 16.4682 39.281 16.8836 40.0694C17.5325 41.2973 18.5512 41.2549 19.6124 41.2458C20.6736 41.2367 22.6142 40.8213 23.6754 40.8092" fill="#FFA75A"/>
<path d="M23.6178 42.0705C22.3868 42.0887 20.1279 42.6223 18.8969 42.6314C17.6659 42.6405 16.3015 42.207 15.7254 41.1185C14.9613 39.6722 15.8497 37.6468 14.8067 36.3854L15.7769 34.8785C17.3536 36.6614 16.4682 39.281 16.8836 40.0694C17.5325 41.2973 18.5512 41.2549 19.6124 41.2458C20.6736 41.2367 22.6142 40.8213 23.6754 40.8092" stroke="#002140" stroke-linecap="round" stroke-linejoin="round"/>
<path d="M5.78327 24.2209C5.76507 22.9899 5.23143 20.731 5.22234 19.5C5.21324 18.269 5.64682 16.9046 6.73532 16.3285C8.1816 15.5645 10.207 16.4528 11.4683 15.4098L12.3355 14.5063L12.9783 16.3801C11.1954 17.9567 8.57577 17.0714 7.78744 17.4868C6.55947 18.1356 6.60191 19.1544 6.61101 20.2156C6.62011 21.2768 7.0355 23.2173 7.04762 24.2785" fill="#FFA75A"/>
<path d="M5.78327 24.2209C5.76507 22.9899 5.23143 20.731 5.22234 19.5C5.21324 18.269 5.64682 16.9046 6.73532 16.3285C8.1816 15.5645 10.207 16.4528 11.4683 15.4098L12.3355 14.5063L12.9783 16.3801C11.1954 17.9567 8.57577 17.0714 7.78744 17.4868C6.55947 18.1356 6.60191 19.1544 6.61101 20.2156C6.62011 21.2768 7.0355 23.2173 7.04762 24.2785" stroke="#002140" stroke-linecap="round" stroke-linejoin="round"/>
<path d="M23.9726 6.50173C25.2036 6.48354 27.4625 5.9499 28.6935 5.9408C29.9245 5.93171 31.2889 6.36529 31.865 7.45379C32.6291 8.90007 31.7407 10.9255 32.7837 12.1868L31.8135 13.6937C30.2368 11.9109 31.1221 9.2912 30.7068 8.50287C30.0579 7.2749 29.0391 7.31735 27.9779 7.32644C26.9167 7.33554 24.9762 7.75093 23.915 7.76305" fill="#FFA75A"/>
<path d="M23.9726 6.50173C25.2036 6.48354 27.4625 5.9499 28.6935 5.9408C29.9245 5.93171 31.2889 6.36529 31.865 7.45379C32.6291 8.90007 31.7407 10.9255 32.7837 12.1868L31.8135 13.6937C30.2368 11.9109 31.1221 9.2912 30.7068 8.50287C30.0579 7.2749 29.0391 7.31735 27.9779 7.32644C26.9167 7.33554 24.9762 7.75093 23.915 7.76305" stroke="#002140" stroke-linecap="round" stroke-linejoin="round"/>
<path d="M41.6767 24.5544C41.6949 25.7854 42.2285 28.0443 42.2376 29.2753C42.2467 30.5063 41.8132 31.8707 40.7247 32.4468C39.2784 33.2109 37.253 32.3225 35.9917 33.3655L34.4847 32.3953C36.2676 30.8186 38.8873 31.7039 39.6756 31.2886C40.9036 30.6397 40.8611 29.6209 40.852 28.5597C40.8429 27.4985 40.4275 25.558 40.4154 24.4968" fill="#FFA75A"/>
<path d="M41.6767 24.5544C41.6949 25.7854 42.2285 28.0443 42.2376 29.2753C42.2467 30.5063 41.8132 31.8707 40.7247 32.4468C39.2784 33.2109 37.253 32.3225 35.9917 33.3655L34.4847 32.3953C36.2676 30.8186 38.8873 31.7039 39.6756 31.2886C40.9036 30.6397 40.8611 29.6209 40.852 28.5597C40.8429 27.4985 40.4275 25.558 40.4154 24.4968" stroke="#002140" stroke-linecap="round" stroke-linejoin="round"/>
<path d="M15.6391 12.1788C14.667 11.2067 13.0908 11.2067 12.1187 12.1788C11.1466 13.151 11.1466 14.7271 12.1187 15.6992L15.0817 18.6622C16.0538 19.6343 17.6299 19.6343 18.6021 18.6622C19.5742 17.6901 19.5742 16.1139 18.6021 15.1418L15.6391 12.1788Z" fill="#F25730" stroke="#002140" stroke-linecap="round" stroke-linejoin="round"/>
<path d="M35.3256 15.6989C36.2977 14.7267 36.2977 13.1506 35.3256 12.1785C34.3534 11.2063 32.7773 11.2063 31.8052 12.1785L28.8422 15.1414C27.8701 16.1136 27.8701 17.6897 28.8422 18.6618C29.8143 19.634 31.3905 19.634 32.3626 18.6618L35.3256 15.6989Z" fill="#F25730" stroke="#002140" stroke-linecap="round" stroke-linejoin="round"/>
<path d="M31.8026 36.4339C32.7748 37.4061 34.3509 37.4061 35.323 36.4339C36.2952 35.4618 36.2952 33.8857 35.323 32.9135L32.3601 29.9506C31.3879 28.9784 29.8118 28.9784 28.8397 29.9506C27.8675 30.9227 27.8675 32.4988 28.8397 33.471L31.8026 36.4339Z" fill="#F25730" stroke="#002140" stroke-linecap="round" stroke-linejoin="round"/>
<path d="M12.1194 32.9108C11.1472 33.883 11.1472 35.4591 12.1194 36.4312C13.0915 37.4034 14.6676 37.4034 15.6398 36.4312L18.6027 33.4683C19.5749 32.4961 19.5749 30.92 18.6027 29.9479C17.6306 28.9757 16.0545 28.9757 15.0823 29.9479L12.1194 32.9108Z" fill="#F25730" stroke="#002140" stroke-linecap="round" stroke-linejoin="round"/>
</svg>

<svg xmlns="http://www.w3.org/2000/svg" width="48" height="48" fill="none" viewBox="0 0 48 48"><path fill="#ffa75a" stroke="#002140" stroke-linecap="round" stroke-linejoin="round" d="M41.655 24.43c.018 1.231.552 3.49.56 4.721.01 1.231-.424 2.596-1.512 3.172-1.447.764-3.472-.125-4.733.918l.815-1.728c.886-.552 2.08.07 2.866-.346 1.228-.649 1.185-1.667 1.176-2.728s-.424-3.002-.436-4.063v-.067c.015-1.061.43-3.002.436-4.063s.049-2.08-1.176-2.729c-.789-.415-1.983.206-2.866-.345l-.815-1.729c1.261 1.04 3.29.152 4.733.919 1.088.576 1.525 1.937 1.513 3.172-.012 1.233-.546 3.49-.561 4.72v.182zM23.618 42.07c-1.231.019-3.49.552-4.721.562-1.231.009-2.596-.425-3.172-1.514-.764-1.446.124-3.471-.919-4.733l1.729.816c.552.886-.07 2.08.345 2.865.65 1.228 1.668 1.186 2.73 1.177 1.06-.01 3-.425 4.062-.437h.067c1.061.015 3.002.43 4.063.437 1.06.006 2.08.048 2.729-1.177.415-.788-.207-1.983.345-2.865l1.728-.816c-1.04 1.262-.151 3.29-.918 4.733-.576 1.089-1.938 1.526-3.172 1.514s-3.49-.546-4.72-.561h-.183zM23.8 6.496c1.23-.018 3.49-.552 4.72-.561 1.232-.01 2.596.424 3.172 1.513.764 1.446-.124 3.471.919 4.733l-1.728-.816c-.552-.885.07-2.08-.346-2.865-.649-1.228-1.668-1.186-2.729-1.177-1.061.01-3.002.425-4.063.437h-.067c-1.06-.015-3.001-.43-4.062-.437-1.062-.006-2.08-.048-2.73 1.177-.415.788.207 1.983-.345 2.865l-1.728.816c1.04-1.261.151-3.29.919-4.733.576-1.089 1.937-1.525 3.171-1.513s3.49.546 4.721.56h.182zM5.774 24.248c-.018-1.23-.551-3.49-.56-4.72-.01-1.232.424-2.596 1.512-3.172 1.447-.764 3.472.124 4.733-.919l-.815 1.728c-.886.552-2.08-.07-2.865.346-1.228.649-1.186 1.668-1.177 2.729.01 1.061.425 3.002.437 4.063v.066c-.015 1.062-.43 3.002-.437 4.063-.006 1.062-.048 2.08 1.177 2.73.788.415 1.982-.207 2.865.345l.815 1.728c-1.26-1.04-3.29-.151-4.733-.919-1.088-.576-1.525-1.937-1.513-3.171.01-1.231.546-3.49.561-4.72v-.183z"/><path fill="#f25730" d="M38.54 22.511a15 15 0 0 1 0 3.635l-.23-.027h-6.392l-.085-.018a8.4 8.4 0 0 0 .009-3.532l.079-.015h6.224l.4-.046z"/><path fill="#fffaf0" d="m38.54 22.511-.4.046h-6.226l-.079.015a8.35 8.35 0 0 0-6.446-6.416l.052-.24V9.695l.027-.23c6.828.812 12.247 6.22 13.068 13.049zm-.234 3.611.23.027c-.83 6.813-6.236 12.21-13.052 13.03l-.04-.359v-6.224l-.027-.116a8.35 8.35 0 0 0 6.413-6.376l.085.018z"/><path fill="#f25730" d="m25.444 38.82.04.358q-.888.11-1.801.11a15 15 0 0 1-1.826-.11l.021-.188V32.6l.028-.125a8.35 8.35 0 0 0 3.51.01l.028.115v6.224zm.027-29.356-.027.23v6.225l-.052.24a8.4 8.4 0 0 0-3.496.018l-.018-.088V9.695l-.027-.225a15.2 15.2 0 0 1 3.617-.003z"/><path fill="#fffaf0" d="m21.906 32.471-.027.125v6.391l-.022.188c-6.804-.828-12.2-6.225-13.028-13.029l.185-.02h6.391l.13-.028a8.35 8.35 0 0 0 6.37 6.376zm-.028-16.388.018.088a8.35 8.35 0 0 0-6.38 6.443l-.278-.06H9.013l-.19-.022c.812-6.822 6.212-12.234 13.028-13.068l.027.224z"/><path fill="#f25730" d="m15.536 26.095-.13.027H9.013l-.185.021a15 15 0 0 1-.003-3.608l.19.021h6.225l.28.061a8.5 8.5 0 0 0-.174 1.704c0 .582.067 1.2.192 1.774z"/><path stroke="#002140" stroke-linecap="round" stroke-linejoin="round" d="M38.539 22.511a15 15 0 0 1 0 3.635c-.831 6.813-6.237 12.21-13.053 13.029q-.888.11-1.801.11c-.61 0-1.228-.037-1.826-.11-6.804-.828-12.2-6.225-13.028-13.029a15 15 0 0 1-.003-3.608C9.64 15.716 15.04 10.304 21.856 9.47a15.2 15.2 0 0 1 3.618-.003c6.828.813 12.246 6.222 13.068 13.05z"/><path stroke="#002140" stroke-linecap="round" stroke-linejoin="round" d="M31.838 22.572q.18.847.181 1.75c0 .6-.066 1.209-.19 1.782a8.36 8.36 0 0 1-6.413 6.376q-.842.183-1.735.182a8.348 8.348 0 0 1-8.165-10.045 8.346 8.346 0 0 1 9.875-6.461 8.35 8.35 0 0 1 6.447 6.416m-22.822-.016h6.221m.167 3.566H9.016m22.901-3.566h6.222m.167 3.566h-6.389M25.443 9.695v6.221m-3.565.167V9.695m3.565 22.9v6.225m-3.565.167v-6.392"/><path fill="#ffa75a" d="M23.618 42.07c-1.231.019-3.49.552-4.721.561s-2.595-.424-3.172-1.513c-.764-1.446.125-3.471-.918-4.733l.97-1.506c1.577 1.782.691 4.402 1.107 5.19.648 1.228 1.667 1.186 2.728 1.177 1.062-.01 3.002-.425 4.063-.437"/><path stroke="#002140" stroke-linecap="round" stroke-linejoin="round" d="M23.618 42.07c-1.231.019-3.49.552-4.721.561s-2.595-.424-3.172-1.513c-.764-1.446.125-3.471-.918-4.733l.97-1.506c1.577 1.782.691 4.402 1.107 5.19.648 1.228 1.667 1.186 2.728 1.177 1.062-.01 3.002-.425 4.063-.437"/><path fill="#ffa75a" d="M5.783 24.22c-.018-1.23-.552-3.489-.56-4.72-.01-1.231.424-2.595 1.512-3.172 1.447-.763 3.472.125 4.733-.918l.867-.904.643 1.874c-1.783 1.577-4.402.691-5.19 1.107-1.229.649-1.186 1.667-1.177 2.729.01 1.06.425 3.001.437 4.063"/><path stroke="#002140" stroke-linecap="round" stroke-linejoin="round" d="M5.783 24.22c-.018-1.23-.552-3.489-.56-4.72-.01-1.231.424-2.595 1.512-3.172 1.447-.763 3.472.125 4.733-.918l.867-.904.643 1.874c-1.783 1.577-4.402.691-5.19 1.107-1.229.649-1.186 1.667-1.177 2.729.01 1.06.425 3.001.437 4.063"/><path fill="#ffa75a" d="M23.973 6.502c1.23-.018 3.49-.552 4.72-.561 1.231-.01 2.596.424 3.172 1.513.764 1.446-.124 3.472.919 4.733l-.97 1.507c-1.577-1.783-.692-4.403-1.107-5.191-.65-1.228-1.668-1.186-2.73-1.177-1.06.01-3 .425-4.062.437"/><path stroke="#002140" stroke-linecap="round" stroke-linejoin="round" d="M23.973 6.502c1.23-.018 3.49-.552 4.72-.561 1.231-.01 2.596.424 3.172 1.513.764 1.446-.124 3.472.919 4.733l-.97 1.507c-1.577-1.783-.692-4.403-1.107-5.191-.65-1.228-1.668-1.186-2.73-1.177-1.06.01-3 .425-4.062.437"/><path fill="#ffa75a" d="M41.677 24.554c.018 1.231.551 3.49.56 4.721s-.424 2.596-1.512 3.172c-1.447.764-3.472-.125-4.733.918l-1.507-.97c1.783-1.576 4.402-.691 5.19-1.106 1.229-.65 1.186-1.668 1.177-2.73-.01-1.06-.424-3.001-.437-4.062"/><path stroke="#002140" stroke-linecap="round" stroke-linejoin="round" d="M41.677 24.554c.018 1.231.551 3.49.56 4.721s-.424 2.596-1.512 3.172c-1.447.764-3.472-.125-4.733.918l-1.507-.97c1.783-1.576 4.402-.691 5.19-1.106 1.229-.65 1.186-1.668 1.177-2.73-.01-1.06-.424-3.001-.437-4.062"/><path fill="#f25730" stroke="#002140" stroke-linecap="round" stroke-linejoin="round" d="M15.64 12.179a2.49 2.49 0 0 0-3.521 3.52l2.963 2.963a2.49 2.49 0 0 0 3.52-3.52zm19.686 3.52a2.49 2.49 0 0 0-3.52-3.52l-2.964 2.962a2.49 2.49 0 0 0 3.52 3.52zm-3.523 20.735a2.49 2.49 0 1 0 3.52-3.52L32.36 29.95a2.49 2.49 0 1 0-3.52 3.52zM12.12 32.91a2.49 2.49 0 1 0 3.52 3.521l2.963-2.963a2.49 2.49 0 1 0-3.52-3.52z"/></svg>
